src/img/logo-purple.svg

<svg width="107" height="31" viewBox="0 0 107 31" fill="none" xmlns="http://www.w3.org/2000/svg">
<path d="M15.709 0.0133154C16.1291 -0.0349849 16.6158 0.0589489 17.0205 0.182261C17.9362 0.46122 18.6805 1.05802 19.1221 1.91078C19.5809 2.78487 19.6688 3.80705 19.3662 4.74671C18.9819 5.90563 18.1573 6.48846 17.1279 7.02406L17.1397 10.4039C17.8752 10.6282 18.5909 10.8821 19.2588 11.2692C20.7939 12.159 21.8439 13.6595 22.2842 15.3668C22.7495 17.1573 22.4854 19.0601 21.5488 20.6559C20.6899 22.1023 19.3203 23.1705 17.6807 23.5797C15.5387 24.115 13.7219 23.5346 11.8809 22.4401C11.0671 23.3102 10.2632 24.1905 9.46973 25.0797C9.82451 25.9166 9.9423 26.795 9.70704 27.6842C9.47706 28.5535 8.868 29.2985 8.08887 29.7389C7.21578 30.233 6.22087 30.3224 5.26368 30.0485C4.31376 29.7766 3.5151 29.1885 3.05078 28.3043C2.59379 27.4349 2.5553 26.4161 2.85157 25.4879C3.18863 24.4331 3.87464 23.7826 4.83985 23.3004C5.87871 22.8941 6.73789 23.0279 7.75196 23.3932C8.59621 22.5048 9.39118 21.5717 10.2441 20.691C9.30665 18.8525 9.00286 17.2863 9.49024 15.2604C8.42892 14.7649 7.40572 14.1874 6.34375 13.691C5.77623 14.2819 5.08227 14.6868 4.26758 14.8239C3.29615 14.9873 2.27211 14.7224 1.47364 14.152C0.682538 13.5788 0.161968 12.7055 0.0341831 11.7369C-0.0969341 10.7978 0.150583 9.76331 0.751957 9.0221C1.37223 8.25761 2.33464 7.79579 3.30664 7.69398C4.26165 7.60096 5.21435 7.89251 5.9541 8.50355C6.89987 9.2957 7.17337 10.2802 7.28809 11.4537C8.29474 12.0709 9.44717 12.5472 10.4961 13.0983C11.8608 11.4849 12.8585 10.9761 14.8477 10.3629L14.8486 7.00843C14.4926 6.86594 14.1374 6.69252 13.8272 6.46449C13.0423 5.88393 12.5266 5.00953 12.3994 4.04164C12.2818 3.07874 12.5542 2.10873 13.1553 1.3473C13.8122 0.523195 14.6903 0.148117 15.709 0.0133154ZM20.0947 16.6998C19.8924 14.3922 17.8643 12.681 15.5557 12.8688C13.2266 13.0585 11.497 15.1075 11.7012 17.4352C11.9054 19.7636 13.9653 21.48 16.292 21.2614C18.5979 21.044 20.2968 19.007 20.0947 16.6998Z" fill="#764191"/>
<path d="M98.7354 11.4592C99.4214 11.4601 100.107 11.4691 100.793 11.4865L100.789 15.1125C101.317 14.7016 101.893 14.3951 102.562 14.2951C103.467 14.1583 104.388 14.3928 105.117 14.9445C105.997 15.6099 106.459 16.7296 106.593 17.8C106.763 19.1579 106.444 20.4636 105.605 21.5461C105.05 22.0826 104.382 22.4581 103.613 22.5842C102.484 22.7697 101.59 22.3748 100.709 21.718L100.705 22.51L98.7363 22.5061L98.7354 11.4592ZM102.262 16.2102C101.65 16.4133 101.225 16.7035 100.927 17.2922C100.595 17.9457 100.573 18.7537 100.831 19.4348C101.029 19.9563 101.398 20.4077 101.913 20.6399C102.287 20.8091 102.64 20.8143 103.042 20.7903C103.681 20.5488 104.111 20.2391 104.399 19.5998C104.701 18.9322 104.696 18.1272 104.41 17.4553C104.19 16.9385 103.799 16.5222 103.271 16.3176C102.941 16.1902 102.609 16.1734 102.262 16.2102Z" fill="#764191"/>
<path d="M39.7998 11.4382C41.0067 15.1582 42.5514 18.7771 43.7285 22.5075L41.5039 22.5095C41.2432 21.713 40.9916 20.8122 40.5938 20.0759C40.3338 19.9647 40.026 20.002 39.748 20.0056C38.6752 20.0162 37.602 20.0132 36.5293 19.9948C36.1925 20.8167 35.921 21.6618 35.6543 22.5085L33.3887 22.5065C34.5719 18.7932 35.9825 15.1272 37.2598 11.4431C38.1047 11.4614 38.9544 11.4416 39.7998 11.4382ZM38.5312 14.1882C38.0628 15.5197 37.626 16.8695 37.1133 18.1843L38.7422 18.1833L40.0078 18.1696C39.8301 17.6691 38.7969 14.4101 38.5312 14.1882Z" fill="#764191"/>
<path d="M86.7002 11.4619L88.8277 11.4747C88.7987 14.0392 88.8214 16.6073 88.8207 19.1717C88.82 20.2301 88.9276 21.387 88.8086 22.4313L88.6918 22.5113H86.6981L86.6938 17.7755C85.1002 17.7309 83.4944 17.7706 81.8993 17.7727L81.9 22.5134L79.7598 22.5092L79.7683 11.4649L81.9 11.4698L81.9014 15.9857H86.7031L86.7002 11.4619Z" fill="#764191"/>
<path d="M90.108 14.5232C90.8138 14.5434 91.5218 14.536 92.2277 14.5399C92.2192 15.6685 92.0408 18.7865 92.3141 19.7197C92.4217 20.0878 92.6369 20.4248 92.9852 20.604C93.5092 20.873 94.0416 20.7172 94.5619 20.5346C94.7927 20.2769 94.991 20.0354 95.105 19.7027C95.4788 18.6145 95.2791 15.8215 95.2735 14.5269C95.9461 14.5449 96.6208 14.5308 97.2934 14.5273C97.2778 15.3026 97.2905 16.0806 97.2891 16.8566L97.2998 22.5078C96.6385 22.5177 95.9772 22.5127 95.3167 22.4929L95.2558 22.4214C95.2657 22.2536 95.2678 22.1169 95.2381 21.9499C94.6186 22.2182 94.0671 22.6253 93.3626 22.6395C92.5456 22.6557 91.6592 22.4023 91.0729 21.8146C90.6283 21.37 90.3572 20.7718 90.2177 20.165C89.9175 18.8595 90.0945 15.968 90.108 14.5232Z" fill="#764191"/>
<path d="M61.514 14.3007C62.5689 14.2181 63.6684 14.2926 64.5208 15.0032C65.1184 15.5008 65.3117 16.0983 65.3761 16.841L63.4695 16.8388C63.3597 16.6349 63.25 16.3985 63.0779 16.2392C62.8032 15.9857 62.4054 15.854 62.0337 15.8738C61.7448 15.8894 61.3759 16.0048 61.1961 16.2491C61.0871 16.3978 61.0269 16.5507 61.0687 16.7362C61.2853 17.7139 63.7711 17.5929 64.5626 18.1104C65.066 18.4403 65.4526 19.0315 65.5644 19.6213C65.6763 20.2245 65.5326 20.8475 65.1687 21.341C64.5612 22.1785 63.6252 22.4794 62.651 22.6288C61.749 22.6833 60.7033 22.4412 59.9812 21.8918C59.3043 21.3764 59.0608 20.7441 58.9688 19.9299C59.6109 19.9314 60.2538 19.925 60.8959 19.9122C60.9334 20.0333 60.9752 20.1501 61.0361 20.262C61.3158 20.7781 61.8744 20.8928 62.3919 21.045C62.7339 20.9664 63.1969 20.8787 63.4397 20.6025C63.5863 20.4355 63.6373 20.1459 63.5757 19.9335C63.3385 19.1165 60.9568 19.0202 60.1306 18.5118C59.6413 18.2102 59.2817 17.7713 59.1514 17.2049C59.0339 16.6916 59.0785 16.1146 59.3674 15.665C59.8884 14.8511 60.6078 14.5168 61.514 14.3007Z" fill="#764191"/>
<path d="M74.3436 14.2984C74.9439 14.2498 75.5323 14.2531 76.1178 14.4114C76.7932 14.5942 77.5104 14.9715 77.8517 15.6112C78.0159 15.9178 78.1419 16.4693 78.0315 16.8098C77.4842 16.9281 76.8159 16.8481 76.2537 16.8417C76.1709 16.5634 76.1008 16.3489 75.8749 16.1563C75.5889 15.917 75.2172 15.8038 74.8462 15.8441C74.556 15.8739 74.1828 16.0169 74.0207 16.2767C73.9237 16.4318 73.8841 16.5911 73.945 16.7695C74.2961 17.8039 76.401 17.5582 77.2194 18.0255C77.7405 18.3235 78.1766 18.8474 78.3246 19.4337C78.4839 20.0631 78.3784 20.7626 78.0152 21.3042C77.4729 22.1127 76.6113 22.4171 75.7022 22.5934C74.8094 22.7039 73.7757 22.5141 73.0295 21.9994C72.2635 21.4713 72.0334 20.8086 71.8613 19.9427L73.7729 19.9285C73.889 20.2209 73.9945 20.4489 74.2423 20.6514C74.5722 20.9219 74.9638 21.0443 75.3893 20.9877C75.7192 20.9438 76.0442 20.7923 76.2417 20.5162C76.3705 20.3349 76.435 20.1147 76.3734 19.8946C76.1341 19.0443 74.0235 19.0974 73.186 18.6464C72.6203 18.3412 72.1721 17.8343 71.993 17.212C71.8408 16.6852 71.9045 16.1365 72.1828 15.6629C72.6451 14.8784 73.4933 14.4946 74.3436 14.2984Z" fill="#764191"/>
<path d="M50.8139 12.3306C51.4483 12.3525 52.0876 12.339 52.7227 12.3417C52.7156 13.0583 52.7262 13.775 52.7538 14.4911L54.6371 14.4923L54.6328 16.1337L52.8395 16.133C52.8402 17.1659 52.6037 19.8308 53.0781 20.6287C53.4483 20.9204 54.1875 20.8114 54.6371 20.8064L54.6307 22.1665C54.6349 22.3067 54.6342 22.3775 54.5627 22.5C54.3121 22.6203 54.0551 22.6472 53.7783 22.6493C53.0497 22.6557 52.0437 22.524 51.5198 21.9782C50.4677 20.8829 50.804 17.6601 50.8089 16.1316L49.5938 16.1337L49.5974 14.4885L50.8075 14.4967L50.8139 12.3306Z" fill="#764191"/>
<path d="M67.1844 12.3216L69.0577 12.3323C69.0435 13.0501 69.0733 13.7713 69.0867 14.4891L71.0004 14.4853L70.9976 16.1344L69.1965 16.133C69.2184 17.1164 68.9777 19.8627 69.423 20.6061C69.9016 20.8921 70.5013 20.8156 71.0394 20.8142C71.033 21.2879 71.0422 21.7629 71.0443 22.2373L71.0217 22.4171C70.8362 22.6132 70.5509 22.6047 70.2981 22.6111C69.5285 22.6295 68.4658 22.5077 67.9079 21.9237C66.8665 20.8333 67.1907 17.6559 67.1999 16.1323L65.9185 16.133C65.9022 15.5871 65.9085 15.0395 65.9043 14.4936L67.1808 14.5002L67.1844 12.3216Z" fill="#764191"/>
<path d="M26.7686 11.0948C26.8671 11.0899 26.9627 11.0885 27.0607 11.1026C27.3669 11.147 27.6686 11.2949 27.8372 11.5637C28.0162 11.849 28.0407 12.2288 28.0652 12.5592C28.1866 14.1946 28.0964 15.8958 28.0959 17.5369C28.0956 18.8772 28.2441 20.6946 27.9953 21.9853C27.917 22.3909 27.6479 22.5849 27.3258 22.8044C27.2031 22.8193 27.0747 22.8363 26.9509 22.8292C26.6744 22.8136 26.4126 22.6904 26.2338 22.4794C26.057 22.2706 26.0621 21.8514 26.0464 21.5895C25.9341 19.7084 26.0291 17.767 26.0308 15.8802C26.0318 14.808 25.8844 12.7556 26.1098 11.7987C26.1905 11.4564 26.499 11.277 26.7686 11.0948Z" fill="#764191"/>
<path d="M48.492 14.4624L48.7612 14.4593C49.0803 14.816 48.9218 15.9461 48.9116 16.4141C48.2375 16.407 47.5999 16.3801 47.0717 16.87C46.0807 17.789 46.4148 21.1569 46.405 22.5085C45.8738 22.5035 44.839 22.6975 44.4332 22.3598L44.412 22.0249C44.4217 19.52 44.3587 17.0173 44.3747 14.5128C45.0178 14.5328 45.663 14.5192 46.3064 14.5157L46.2837 15.6218C46.4031 15.4505 46.5216 15.2671 46.6601 15.1109C47.1476 14.561 47.8089 14.5112 48.492 14.4624Z" fill="#764191"/>
<path d="M55.8075 14.4955L57.8281 14.4963L57.833 22.5127L55.7891 22.5099L55.8075 14.4955Z" fill="#764191"/>
<path d="M23.9465 13.7215C24.2782 13.7826 24.5718 13.9073 24.7651 14.1955C25.0633 14.64 25.0714 18.9954 24.922 19.617C24.8403 19.9568 24.5463 20.1225 24.2675 20.286C23.9483 20.2669 23.5287 20.2386 23.3155 19.9618C22.9982 19.5504 23.0245 14.9215 23.2051 14.341C23.31 14.0037 23.6568 13.8612 23.9465 13.7215Z" fill="#764191"/>
<path d="M56.6842 11.1927C57.2845 11.1222 57.8325 11.5418 57.9203 12.1398C58.0088 12.7378 57.6053 13.2975 57.0105 13.4033C56.6091 13.4745 56.2013 13.3221 55.9457 13.0054C55.6894 12.6888 55.6264 12.258 55.78 11.8809C55.9337 11.5039 56.2799 11.2402 56.6842 11.1927Z" fill="#764191"/>
</svg>

<svg xmlns="http://www.w3.org/2000/svg" width="107" height="31" fill="none" viewBox="0 0 107 31"><path fill="#764191" d="M15.709.013c.42-.048.907.046 1.311.17.916.278 1.66.875 2.102 1.728.459.874.547 1.896.244 2.836-.384 1.159-1.209 1.741-2.238 2.277l.012 3.38c.735.224 1.45.478 2.119.865 1.535.89 2.585 2.39 3.025 4.098a6.98 6.98 0 0 1-.735 5.289c-.86 1.446-2.229 2.515-3.868 2.924-2.142.535-3.96-.045-5.8-1.14q-1.221 1.305-2.411 2.64c.355.837.472 1.715.237 2.604-.23.87-.839 1.614-1.618 2.055-.873.494-1.868.583-2.825.31-.95-.272-1.749-.86-2.213-1.745-.457-.87-.496-1.888-.2-2.816.338-1.055 1.024-1.705 1.989-2.188 1.039-.406 1.898-.272 2.912.093.844-.888 1.64-1.821 2.492-2.702-.937-1.838-1.241-3.405-.754-5.43-1.061-.496-2.084-1.074-3.146-1.57-.568.59-1.262.996-2.076 1.133-.972.163-1.996-.102-2.794-.672a3.56 3.56 0 0 1-1.44-2.415c-.13-.94.117-1.974.718-2.715.62-.764 1.583-1.226 2.555-1.328a3.6 3.6 0 0 1 2.647.81c.946.792 1.22 1.776 1.334 2.95 1.007.617 2.16 1.093 3.208 1.644 1.365-1.613 2.362-2.122 4.352-2.735V7.008a4.6 4.6 0 0 1-1.02-.544 3.6 3.6 0 0 1-1.429-2.422 3.64 3.64 0 0 1 .756-2.695C13.812.523 14.69.148 15.71.013M20.095 16.7a4.213 4.213 0 1 0-8.395.737 4.213 4.213 0 0 0 8.395-.737m78.64-5.24q1.029.001 2.058.026l-.004 3.627c.528-.411 1.104-.718 1.773-.818a3.4 3.4 0 0 1 2.555.65c.88.665 1.342 1.785 1.476 2.855.17 1.358-.149 2.664-.988 3.746-.555.537-1.223.912-1.992 1.038-1.129.186-2.023-.21-2.904-.866l-.004.792-1.969-.004zm3.527 4.75c-.612.203-1.037.493-1.335 1.082-.332.654-.354 1.462-.096 2.143.198.521.567.973 1.082 1.205.374.17.727.174 1.129.15.639-.241 1.069-.55 1.357-1.19a2.72 2.72 0 0 0 .011-2.145c-.22-.516-.611-.933-1.139-1.137-.33-.128-.662-.145-1.009-.108M39.8 11.438c1.207 3.72 2.751 7.34 3.928 11.07l-2.224.002c-.26-.797-.512-1.698-.91-2.434-.26-.111-.568-.074-.846-.07q-1.61.015-3.219-.011c-.337.822-.608 1.667-.875 2.514l-2.265-.003c1.183-3.713 2.593-7.379 3.87-11.063.846.018 1.695-.001 2.54-.005m-1.269 2.75c-.468 1.332-.905 2.681-1.418 3.996h1.63l1.265-.014c-.178-.5-1.211-3.76-1.477-3.982m48.17-2.726 2.128.013c-.03 2.564-.007 5.132-.007 7.697-.001 1.058.107 2.215-.012 3.26l-.117.08h-1.994l-.004-4.736c-1.594-.045-3.2-.005-4.795-.003l.001 4.74-2.14-.004.008-11.044 2.132.005.001 4.516h4.802zm3.408 3.061c.706.02 1.414.013 2.12.017-.009 1.129-.187 4.247.086 5.18.108.368.323.705.671.884.524.269 1.057.113 1.577-.07.23-.257.429-.499.543-.831.374-1.088.174-3.881.168-5.176.673.018 1.348.004 2.02 0-.015.776-.003 1.554-.004 2.33l.01 5.65q-.991.015-1.982-.014l-.061-.072a2 2 0 0 0-.018-.471c-.62.268-1.17.675-1.875.69-.817.016-1.704-.238-2.29-.825-.445-.445-.716-1.043-.855-1.65-.3-1.305-.124-4.197-.11-5.642M61.514 14.3c1.055-.082 2.154-.007 3.007.703.597.498.79 1.095.855 1.838l-1.907-.002c-.11-.204-.219-.44-.391-.6a1.46 1.46 0 0 0-1.044-.365c-.29.015-.658.13-.838.375-.109.149-.17.302-.127.487.216.978 2.702.857 3.494 1.374.503.33.89.922 1.001 1.511a2.22 2.22 0 0 1-.395 1.72c-.608.837-1.544 1.138-2.518 1.288-.902.054-1.948-.188-2.67-.737-.677-.516-.92-1.148-1.012-1.962a87 87 0 0 0 1.927-.018c.037.121.08.238.14.35.28.516.838.63 1.356.783.342-.079.805-.166 1.048-.443.146-.166.197-.456.136-.669-.237-.817-2.62-.913-3.445-1.421-.49-.302-.85-.74-.98-1.307-.117-.513-.073-1.09.216-1.54.521-.814 1.24-1.148 2.147-1.364m12.83-.003c.6-.048 1.188-.045 1.774.113.675.183 1.392.56 1.734 1.2.164.307.29.858.18 1.199-.548.118-1.216.038-1.778.032-.083-.279-.153-.493-.38-.686a1.37 1.37 0 0 0-1.028-.312c-.29.03-.663.173-.825.433-.097.155-.137.314-.076.492.351 1.035 2.456.79 3.274 1.257.522.297.958.821 1.106 1.408a2.36 2.36 0 0 1-.31 1.87c-.542.809-1.404 1.113-2.313 1.29-.893.11-1.926-.08-2.672-.595-.767-.528-.997-1.19-1.169-2.056l1.912-.015c.116.293.222.52.47.723.33.27.72.393 1.146.337.33-.044.655-.196.853-.472.129-.181.193-.401.131-.621-.239-.85-2.35-.798-3.187-1.249-.566-.305-1.014-.812-1.193-1.434a1.95 1.95 0 0 1 .19-1.55c.462-.784 1.31-1.167 2.16-1.364M50.814 12.33c.634.022 1.274.009 1.909.012a44 44 0 0 0 .03 2.15h1.884l-.004 1.642-1.794-.001c.001 1.033-.235 3.698.24 4.496.37.291 1.108.182 1.558.177l-.006 1.36c.004.14.003.212-.068.334-.25.12-.508.147-.785.15-.728.006-1.734-.126-2.258-.672-1.052-1.095-.716-4.318-.711-5.846l-1.215.002.003-1.646 1.21.009zm16.37-.008 1.874.01c-.015.718.015 1.44.029 2.157L71 14.485l-.002 1.65-1.802-.002c.022.983-.218 3.73.227 4.473.479.286 1.078.21 1.616.208-.006.474.003.949.005 1.423l-.022.18c-.186.196-.471.188-.724.194-.77.018-1.832-.103-2.39-.687-1.041-1.09-.717-4.268-.708-5.792l-1.282.001c-.016-.546-.01-1.093-.014-1.64l1.277.007zm-40.415-1.227c.098-.005.194-.007.292.008.306.044.608.192.776.46.18.286.204.666.228.996.122 1.636.031 3.337.03 4.978 0 1.34.15 3.158-.1 4.448-.078.406-.347.6-.67.82-.122.014-.25.031-.374.024a1 1 0 0 1-.717-.35c-.177-.208-.172-.628-.188-.89-.112-1.88-.017-3.822-.015-5.709 0-1.072-.147-3.124.079-4.081.08-.343.389-.522.659-.704m21.723 3.367.27-.003c.318.357.16 1.487.15 1.955-.675-.007-1.312-.034-1.84.456-.991.919-.657 4.287-.667 5.639-.531-.006-1.566.189-1.972-.15l-.021-.334c.01-2.505-.053-5.008-.037-7.512.643.02 1.288.006 1.931.003l-.022 1.106c.12-.171.238-.355.376-.511.488-.55 1.149-.6 1.832-.649m7.316.034h2.02l.005 8.017-2.044-.003zm-31.861-.774c.331.06.625.185.818.473.298.445.306 4.8.157 5.422-.082.34-.376.505-.655.669-.319-.02-.738-.047-.951-.324-.318-.412-.291-5.04-.11-5.621.104-.337.45-.48.74-.62m32.738-2.528a1.118 1.118 0 1 1 .261 2.22 1.118 1.118 0 0 1-.26-2.22"/></svg>
